X: 157
%
U:~=!turn!
U:n=!diminuendo(!
U:p=!diminuendo)!
T: Duncan on the Plainstones (Elgin)
C:James Scott Skinner
O:Scotland
B:Keith Norman MacDonald : "The Skye collection of the best reels & strathspeys extant" : 1887
Z:Ralph Palmer
R:Reel
M:C
L:1/8
K:D
G !segno!|| F>D D/2D/2D (FG) .A.B | =cBcG ECEG | F>D D/2D/2D (FG) .A.B | dABG FDD :|
g | fa^gb adfd | Be^df eAcA | fa^gb adfd | Bdce fddg |
fa^gb adfd | Be^df eAce | !f!fnedc BAGF | EDCB, pA,GFE !segno!|| x "Last"H[F4A4d4] |]


